
let ns p = note (scale "[lydian ]/4" $ p + "[0 1]/8")

d1 $ stack[
	sometimes (0.25 <~) $ ns (round <$> (segment ("<<~ 8 4> 2 1 ~>") $ slow 2 $ perlin*17-5)) # midi 2 # fenix (slow 6 $ perlin*0.2+0.30) # cam (slow 3 $  perlin*2) (slow 7 $ 1- perlin*2) ((slow 3 $ 2 - perlin*4)) ,
	ns ("{0*2 2 4 7 [10 9]}%1") # midi 0,
  ns ("[2,<5 6>,<11 ~ 9 8>](6,9)") # midi 1 # gain 0.47,
  cc 1 71 10,
  cc 1 74 10
]

d2 "swbd feel:1"
